svgs/thin/toilet-paper-under-slash.svg

<svg xmlns="http://www.w3.org/2000/svg" viewBox="0 0 640 512"><!-- Font Awesome Pro 6.0.0-alpha2 by @fontawesome - https://fontawesome.com License - https://fontawesome.com/license (Commercial License) --><path d="M636.98 497.734L388.425 300.162C388.425 300.16 388.425 300.162 388.425 300.16L365.318 281.791C365.32 281.793 365.316 281.793 365.318 281.793L12.988 1.73C11.525 0.566 9.771 0 8.025 0C5.673 0 3.335 1.027 1.738 3.012C-1.012 6.48 -0.434 11.512 3.019 14.262L627.011 510.266C628.495 511.438 630.245 512 631.995 512C634.339 512 636.683 510.969 638.261 508.984C641.011 505.516 640.433 500.484 636.98 497.734ZM175.999 16H419.374C380.199 45.311 352.689 111.928 352.107 189.535L368.286 202.395C368.175 198.936 367.999 195.51 367.999 192C367.999 94.953 411.062 16 463.999 16S559.999 94.953 559.999 192C559.999 246.311 546.499 294.928 525.343 327.238L537.12 336.598C546.042 323.277 553.878 307.865 559.999 290.381V354.785L575.999 367.504V192C575.999 86.125 525.749 0 463.999 0H175.999C160.609 0 145.937 5.359 132.575 15.031L145.468 25.279C155.074 19.35 165.318 16 175.999 16ZM559.999 436.543L575.999 449.262V449.26L559.999 436.541V436.543ZM463.999 120C441.202 120 423.999 150.953 423.999 192S441.202 264 463.999 264S503.999 233.047 503.999 192S486.796 120 463.999 120ZM463.999 248C452.671 248 439.999 224.047 439.999 192S452.671 136 463.999 136S487.999 159.953 487.999 192S475.327 248 463.999 248ZM345.185 368H175.999C123.062 368 79.999 289.047 79.999 192C79.999 180.58 80.642 169.441 81.781 158.623L67.226 147.053C65.193 161.498 63.999 176.498 63.999 192C63.999 297.875 114.249 384 175.999 384H365.314L345.185 368ZM231.999 496C218.765 496 207.999 485.234 207.999 472V424C207.999 419.578 204.421 416 199.999 416S191.999 419.578 191.999 424V472C191.999 494.062 209.937 512 231.999 512H526.343L506.214 496H231.999ZM472.747 367.188L487.851 379.193L472.749 367.188C472.747 367.188 472.749 367.188 472.747 367.188ZM104.675 74.609L92.333 64.801L104.675 74.611V74.609Z"/></svg>

<svg xmlns="http://www.w3.org/2000/svg" viewBox="0 0 640 512"><!--! Font Awesome Pro 6.3.0 by @fontawesome - https://fontawesome.com License - https://fontawesome.com/license (Commercial License) Copyright 2023 Fonticons, Inc. --><path d="M636.1 497.7l-248.6-197.6c0-.002 0 .002 0 0l-23.11-18.37c.002 .002-.002 0 0 0L12.99 1.73C11.53 .5664 9.771 0 8.025 0C5.674 0 3.336 1.027 1.738 3.012c-2.75 3.469-2.172 8.5 1.281 11.25l623.1 496C628.5 511.4 630.2 512 631.1 512c2.344 0 4.688-1.031 6.266-3.016C641 505.5 640.4 500.5 636.1 497.7zM176 16h243.4c-39.18 29.31-66.69 95.93-67.27 173.5l16.18 12.86C368.2 198.9 368 195.5 368 192c0-97.05 43.06-176 96-176s96 78.95 96 176c0 54.31-13.5 102.9-34.66 135.2l11.78 9.359C546 323.3 553.9 307.9 560 290.4v64.4l16 12.72L576 192c0-105.9-50.25-192-112-192H176c-15.39 0-30.06 5.359-43.42 15.03L145.5 25.28C155.1 19.35 165.3 16 176 16zM560 436.5l16 12.72L560 436.5zM464 120c-22.8 0-40 30.95-40 72s17.2 72 40 72S504 233 504 192S486.8 120 464 120zM464 248c-11.33 0-24-23.95-24-56S452.7 136 464 136S487.1 159.1 487.1 192S475.3 248 464 248zM345.2 368H176c-52.94 0-96-78.95-96-176c0-11.42 .6426-22.56 1.781-33.38l-14.55-11.57C65.19 161.5 64 176.5 64 192c0 105.9 50.25 192 112 192h189.3L345.2 368zM232 496c-13.23 0-24-10.77-24-24v-48C208 419.6 204.4 416 200 416S192 419.6 192 424v48C192 494.1 209.9 512 232 512h294.3l-20.13-16H232zM472.7 367.2l15.1 12.01L472.7 367.2C472.7 367.2 472.8 367.2 472.7 367.2zM104.7 74.61L92.33 64.8L104.7 74.61z"/></svg>
